svg/list.svg

<svg id="UPDATED_SQUARE_compound" xmlns="http://www.w3.org/2000/svg" viewBox="0 0 40 40"><style>.st0{fill-rule:evenodd;clip-rule:evenodd}</style><path d="M30 12v3H15v-3h15zm-15 9h15v-3H15v3zm0 6h15v-3H15v3zm-5-12h3v-3h-3v3zm0 6h3v-3h-3v3zm0 6h3v-3h-3v3z"/></svg>

<?xml version="1.0" encoding="utf-8"?>
<!-- Generator: Adobe Illustrator 19.2.1, SVG Export Plug-In . SVG Version: 6.00 Build 0)  -->
<svg version="1.1" id="UPDATED_SQUARE_compound" xmlns="http://www.w3.org/2000/svg" xmlns:xlink="http://www.w3.org/1999/xlink"
	 x="0px" y="0px" viewBox="0 0 40 40" style="enable-background:new 0 0 40 40;" xml:space="preserve">
<style type="text/css">
	.st0{fill-rule:evenodd;clip-rule:evenodd;}
</style>
<path d="M30,12v3H15v-3H30z M15,21h15v-3H15V21z M15,27h15v-3H15V27z M10,15h3v-3h-3V15z M10,21h3v-3h-3V21z M10,27h3v-3h-3V27z"/>
</svg>
